;FLAVOR:Marlin
;TIME:8744
;Filament used: 9.83823m
;Layer height: 0.28
;MINX:32.1
;MINY:43.65
;MINZ:0.28
;MAXX:187.9
;MAXY:176.35
;MAXZ:7.84
;Generated with Creality Slicer 4.8.2-254
M140 S70
M105
M190 S70
M104 S220
M105
M109 S220
M82 ;absolute extrusion mode

G28 ;Home

G92 E0 ;Reset Extruder
G1 Z2.0 F3000 ;Move Z Axis up
G1 X10.1 Y20 Z0.28 F5000.0 ;Move to start position
G1 X10.1 Y200.0 Z0.28 F1500.0 E15 ;Draw the first line
G1 X10.4 Y200.0 Z0.28 F5000.0 ;Move to side a little
G1 X10.4 Y20 Z0.28 F1500.0 E30 ;Draw the second line
G92 E0 ;Reset Extruder
G1 Z2.0 F3000 ;Move Z Axis up

G92 E0
G92 E0
G1 F3600 E-3
;LAYER_COUNT:28
;LAYER:0
M106 S255
G0 F6000 X35.986 Y46.277 Z0.28
;TYPE:SKIRT
G1 F3600 E0
G1 F1080 X36.726 Y45.701 E0.04367
G1 X37.512 Y45.189 E0.08735
G1 X38.339 Y44.747 E0.13101
G1 X39.201 Y44.377 E0.17469
G1 X40.091 Y44.081 E0.21836
G1 X41.003 Y43.863 E0.26203
G1 X41.93 Y43.722 E0.30569
G1 X42.801 Y43.663 E0.34634
G1 X43.122 Y43.654 E0.36129
G1 X43.43 Y43.65 E0.37563
G1 X176.193 Y43.65 E6.55763
G1 X177.049 Y43.661 E6.5975
G1 X177.985 Y43.715 E6.64115
G1 X178.913 Y43.847 E6.6848
G1 X179.827 Y44.059 E6.72849
G1 X180.719 Y44.348 E6.77215
G1 X181.584 Y44.711 E6.81583
G1 X182.414 Y45.147 E6.85949
G1 X183.205 Y45.652 E6.90319
G1 X183.949 Y46.223 E6.94686
G1 X184.642 Y46.855 E6.99053
G1 X185.279 Y47.543 E7.03419
G1 X185.854 Y48.284 E7.07786
G1 X186.365 Y49.07 E7.12152
G1 X186.807 Y49.898 E7.16522
G1 X187.176 Y50.76 E7.20888
G1 X187.471 Y51.65 E7.25254
G1 X187.689 Y52.562 E7.2962
G1 X187.829 Y53.49 E7.33991
G1 X187.887 Y54.351 E7.38009
G1 X187.896 Y54.671 E7.39499
G1 X187.9 Y54.98 E7.40938
G1 X187.899 Y164.75 E12.52073
G1 X187.89 Y165.477 E12.55459
G1 X187.839 Y166.414 E12.59828
G1 X187.707 Y167.342 E12.64193
G1 X187.498 Y168.256 E12.68559
G1 X187.211 Y169.149 E12.72927
G1 X186.849 Y170.015 E12.77297
G1 X186.415 Y170.846 E12.81663
G1 X185.911 Y171.637 E12.8603
G1 X185.342 Y172.382 E12.90395
G1 X184.711 Y173.077 E12.94766
G1 X184.024 Y173.715 E12.99132
G1 X183.285 Y174.292 E13.03498
G1 X182.499 Y174.804 E13.07865
G1 X181.673 Y175.247 E13.1223
G1 X180.811 Y175.619 E13.16602
G1 X179.922 Y175.915 E13.20965
G1 X179.01 Y176.135 E13.25333
G1 X178.083 Y176.276 E13.29699
G1 X177.199 Y176.337 E13.33825
G1 X176.878 Y176.346 E13.35321
G1 X176.57 Y176.35 E13.36755
G1 X43.665 Y176.349 E19.55616
G1 X42.967 Y176.34 E19.58867
G1 X42.031 Y176.288 E19.63232
G1 X41.102 Y176.156 E19.67601
G1 X40.188 Y175.946 E19.71968
G1 X39.295 Y175.659 E19.76336
G1 X38.43 Y175.296 E19.80704
G1 X37.599 Y174.862 E19.85069
G1 X36.808 Y174.358 E19.89436
G1 X36.063 Y173.788 E19.93804
G1 X35.369 Y173.157 E19.98172
G1 X34.732 Y172.47 E20.02534
G1 X34.155 Y171.73 E20.06904
G1 X33.643 Y170.944 E20.11272
G1 X33.2 Y170.117 E20.1564
G1 X32.829 Y169.256 E20.20006
G1 X32.533 Y168.366 E20.24373
G1 X32.314 Y167.454 E20.28741
G1 X32.173 Y166.527 E20.33107
G1 X32.113 Y165.638 E20.37256
G1 X32.104 Y165.305 E20.38807
G1 X32.1 Y165.008 E20.4019
G1 X32.101 Y55.175 E25.51618
G1 X32.11 Y54.51 E25.54715
G1 X32.163 Y53.574 E25.59081
G1 X32.295 Y52.645 E25.6345
G1 X32.506 Y51.731 E25.67818
G1 X32.794 Y50.839 E25.72182
G1 X33.157 Y49.974 E25.76551
G1 X33.592 Y49.143 E25.80918
G1 X34.096 Y48.353 E25.85282
G1 X34.666 Y47.608 E25.8965
G1 X35.298 Y46.914 E25.9402
G1 X35.986 Y46.277 E25.98386
G0 F6000 X36.374 Y46.473
G1 F1080 X37.11 Y45.92 E26.02673
G1 X37.891 Y45.432 E26.06961
G1 X38.711 Y45.014 E26.11247
G1 X39.565 Y44.669 E26.15536
G1 X40.445 Y44.399 E26.19822
G1 X41.345 Y44.207 E26.24107
G1 X42.259 Y44.093 E26.28396
G1 X42.812 Y44.063 E26.30975
G1 X43.133 Y44.054 E26.3247
G1 X43.43 Y44.05 E26.33853
G1 X176.193 Y44.05 E32.52053
G1 X177.043 Y44.061 E32.56011
G1 X177.962 Y44.114 E32.60298
G1 X178.873 Y44.247 E32.64585
G1 X179.769 Y44.458 E32.68871
G1 X180.643 Y44.746 E32.73156
G1 X181.49 Y45.109 E32.77447
G1 X182.301 Y45.544 E32.81732
G1 X183.071 Y46.048 E32.86017
G1 X183.795 Y46.617 E32.90305
G1 X184.467 Y47.247 E32.94594
G1 X185.082 Y47.932 E32.98881
G1 X185.635 Y48.668 E33.03168
G1 X186.122 Y49.449 E33.07453
G1 X186.539 Y50.27 E33.11741
G1 X186.884 Y51.124 E33.1603
G1 X187.153 Y52.004 E33.20315
G1 X187.345 Y52.905 E33.24604
G1 X187.458 Y53.818 E33.28888
G1 X187.487 Y54.362 E33.31425
G1 X187.496 Y54.682 E33.32916
G1 X187.5 Y54.98 E33.34303
G1 X187.499 Y164.745 E38.45415
G1 X187.49 Y165.472 E38.48801
G1 X187.439 Y166.391 E38.53086
G1 X187.308 Y167.303 E38.57377
G1 X187.098 Y168.199 E38.61662
G1 X186.812 Y169.074 E38.65948
G1 X186.451 Y169.921 E38.70236
G1 X186.017 Y170.733 E38.74523
G1 X185.515 Y171.505 E38.78811
G1 X184.947 Y172.23 E38.83099
G1 X184.319 Y172.903 E38.87386
G1 X183.635 Y173.519 E38.91672
G1 X182.9 Y174.073 E38.95958
G1 X182.12 Y174.562 E39.00244
G1 X181.3 Y174.981 E39.04532
G1 X180.447 Y175.327 E39.08818
G1 X179.567 Y175.598 E39.13106
G1 X178.667 Y175.791 E39.17392
G1 X177.753 Y175.906 E39.21681
G1 X177.188 Y175.937 E39.24316
G1 X176.867 Y175.946 E39.25812
G1 X176.57 Y175.95 E39.27195
G1 X43.67 Y175.949 E45.46033
G1 X42.972 Y175.94 E45.49283
G1 X42.053 Y175.888 E45.53569
G1 X41.142 Y175.757 E45.57855
G1 X40.246 Y175.547 E45.6214
G1 X39.371 Y175.26 E45.66428
G1 X38.524 Y174.898 E45.70717
G1 X37.712 Y174.464 E45.75004
G1 X36.941 Y173.962 E45.79288
G1 X36.216 Y173.394 E45.83577
G1 X35.543 Y172.765 E45.87866
G1 X34.928 Y172.081 E45.92149
G1 X34.374 Y171.346 E45.96435
G1 X33.886 Y170.565 E46.00723
G1 X33.467 Y169.745 E46.05011
G1 X33.121 Y168.892 E46.09298
G1 X32.851 Y168.012 E46.13584
G1 X32.658 Y167.111 E46.17874
G1 X32.544 Y166.198 E46.22159
G1 X32.513 Y165.627 E46.24821
G1 X32.504 Y165.294 E46.26373
G1 X32.5 Y165.008 E46.27704
G1 X32.501 Y55.181 E51.39105
G1 X32.51 Y54.516 E51.42202
G1 X32.562 Y53.596 E51.46493
G1 X32.694 Y52.685 E51.50779
G1 X32.905 Y51.789 E51.55065
G1 X33.192 Y50.914 E51.59353
G1 X33.555 Y50.068 E51.6364
G1 X33.989 Y49.256 E51.67927
G1 X34.492 Y48.485 E51.72213
G1 X35.061 Y47.761 E51.76501
G1 X35.689 Y47.089 E51.80784
G1 X36.374 Y46.473 E51.85074
G0 F6000 X36.762 Y46.674
G1 F1080 X37.494 Y46.144 E51.89282
G1 X38.269 Y45.681 E51.93486
G1 X39.082 Y45.288 E51.9769
G1 X39.927 Y44.968 E52.01898
G1 X40.796 Y44.725 E52.06099
G1 X41.684 Y44.559 E52.10306
G1 X42.823 Y44.463 E52.15628
G1 X43.144 Y44.454 E52.17124
G1 X43.43 Y44.45 E52.18455
G1 X176.193 Y44.45 E58.36656
G1 X177.037 Y44.461 E58.40586
G1 X177.939 Y44.514 E58.44793
G1 X178.832 Y44.646 E58.48997
G1 X179.71 Y44.857 E58.53201
G1 X180.566 Y45.145 E58.57407
G1 X181.393 Y45.507 E58.6161
G1 X182.185 Y45.942 E58.65818
G1 X182.936 Y46.444 E58.70024
G1 X183.639 Y47.011 E58.7423
G1 X184.289 Y47.638 E58.78435
G1 X184.881 Y48.32 E58.8264
G1 X185.411 Y49.051 E58.86845
G1 X185.873 Y49.827 E58.9105
G1 X186.266 Y50.64 E58.95255
G1 X186.584 Y51.485 E58.99459
G1 X186.827 Y52.355 E59.03665
G1 X186.992 Y53.243 E59.07871
G1 X187.087 Y54.373 E59.13151
G1 X187.096 Y54.693 E59.14642
G1 X187.1 Y54.98 E59.15978
G1 X187.099 Y164.74 E64.27067
G1 X187.09 Y165.467 E64.30452
G1 X187.039 Y166.369 E64.34659
G1 X186.908 Y167.263 E64.38866
G1 X186.699 Y168.141 E64.43069
G1 X186.413 Y168.998 E64.47276
G1 X186.052 Y169.826 E64.51482
G1 X185.62 Y170.618 E64.55683
G1 X185.119 Y171.37 E64.5989
G1 X184.553 Y172.074 E64.64096
G1 X183.928 Y172.725 E64.68298
G1 X183.247 Y173.319 E64.72506
G1 X182.516 Y173.85 E64.76713
G1 X181.742 Y174.314 E64.80915
G1 X180.929 Y174.708 E64.85122
G1 X180.085 Y175.028 E64.89325
G1 X179.215 Y175.273 E64.93534
G1 X178.328 Y175.439 E64.97736
G1 X177.177 Y175.537 E65.03115
G1 X176.856 Y175.546 E65.0461
G1 X176.57 Y175.55 E65.05942
G1 X43.675 Y175.549 E71.24757
G1 X42.977 Y175.54 E71.28007
G1 X42.076 Y175.489 E71.32209
G1 X41.182 Y175.357 E71.36417
G1 X40.304 Y175.148 E71.4062
G1 X39.447 Y174.861 E71.44828
G1 X38.62 Y174.5 E71.4903
G1 X37.827 Y174.067 E71.53237
G1 X37.076 Y173.566 E71.57441
G1 X36.372 Y173 E71.61647
G1 X35.721 Y172.374 E71.65853
G1 X35.128 Y171.693 E71.70057
G1 X34.598 Y170.962 E71.74262
G1 X34.134 Y170.187 E71.78468
G1 X33.74 Y169.374 E71.82674
G1 X33.42 Y168.53 E71.86877
G1 X33.176 Y167.66 E71.91085
G1 X33.01 Y166.772 E71.95291
G1 X32.913 Y165.617 E72.00689
G1 X32.904 Y165.284 E72.0224
G1 X32.9 Y165.008 E72.03525
G1 X32.901 Y55.186 E77.14902
G1 X32.91 Y54.521 E77.17999
G1 X32.962 Y53.619 E77.22206
G1 X33.094 Y52.726 E77.26409
G1 X33.304 Y51.848 E77.30613
G1 X33.591 Y50.991 E77.34821
G1 X33.953 Y50.164 E77.39025
G1 X34.386 Y49.372 E77.43228
G1 X34.888 Y48.621 E77.47434
G1 X35.455 Y47.917 E77.51644
G1 X36.081 Y47.267 E77.55846
G1 X36.762 Y46.674 E77.6005
G1 F3600 E74.6005
;MESH:L.E.E.F-ProtoBoard_Mount.stl
G0 F6000 X43.91 Y53.985
G0 X43.91 Y55.46
G0 X43.882 Y164.568
G0 X176.3 Y164.75
;TYPE:WALL-INNER
G1 F3600 E77.6005
G1 F1080 X43.7 Y164.75 E83.77492
G1 X43.7 Y55.25 E88.87369
G1 X176.3 Y55.25 E95.04811
G1 X176.3 Y164.75 E100.14688
G0 F6000 X176.7 Y165.15
;TYPE:WALL-OUTER
G1 F1080 X43.3 Y165.15 E106.35855
G1 X43.3 Y54.85 E111.49458
G1 X176.7 Y54.85 E117.70624
G1 X176.7 Y165.15 E122.84227
G0 F6000 X176.43 Y164.88
G0 X176.19 Y164.36
G0 X175.91 Y164.36
;TYPE:SKIN
G1 F1080 X44.09 Y164.36 E128.98036
G1 X44.09 Y55.64 E134.04282
G1 X175.91 Y55.64 E140.18091
G1 X175.91 Y164.36 E145.24337
G1 F3600 E142.24337
G0 F6000 X176.19 Y164.36
G0 X176.19 Y56.389
G0 X175.749 Y56.389
G1 F3600 E145.24337
G1 F1080 X175.159 Y55.799 E145.28222
G0 F6000 X174.593 Y55.799
G1 F1080 X175.749 Y56.955 E145.35835
G0 F6000 X175.749 Y57.521
G1 F1080 X174.028 Y55.799 E145.47171
G0 F6000 X173.462 Y55.799
G1 F1080 X175.749 Y58.086 E145.62231
G0 F6000 X175.749 Y58.652
G1 F1080 X172.896 Y55.799 E145.81019
G0 F6000 X172.331 Y55.799
G1 F1080 X175.749 Y59.218 E146.0353
G0 F6000 X175.749 Y59.783
G1 F1080 X171.765 Y55.799 E146.29766
G0 F6000 X171.199 Y55.799
G1 F1080 X175.749 Y60.349 E146.59728
G0 F6000 X175.749 Y60.915
G1 F1080 X170.634 Y55.799 E146.93415
G0 F6000 X170.068 Y55.799
G1 F1080 X175.749 Y61.48 E147.30825
G0 F6000 X175.749 Y62.046
G1 F1080 X169.502 Y55.799 E147.71962
G0 F6000 X168.937 Y55.799
G1 F1080 X175.749 Y62.612 E148.16824
G0 F6000 X175.749 Y63.177
G1 F1080 X168.371 Y55.799 E148.65409
G0 F6000 X167.805 Y55.799
G1 F1080 X175.749 Y63.743 E149.17722
G0 F6000 X175.749 Y64.309
G1 F1080 X167.239 Y55.799 E149.73762
G0 F6000 X166.674 Y55.799
G1 F1080 X175.749 Y64.874 E150.33522
G0 F6000 X175.749 Y65.44
G1 F1080 X166.108 Y55.799 E150.9701
G0 F6000 X165.542 Y55.799
G1 F1080 X175.749 Y66.006 E151.64225
G0 F6000 X175.749 Y66.571
G1 F1080 X164.977 Y55.799 E152.3516
G0 F6000 X164.411 Y55.799
G1 F1080 X175.749 Y67.137 E153.09823
G0 F6000 X175.749 Y67.703
G1 F1080 X163.845 Y55.799 E153.88213
G0 F6000 X163.28 Y55.799
G1 F1080 X175.749 Y68.269 E154.70326
G0 F6000 X175.749 Y68.834
G1 F1080 X162.714 Y55.799 E155.56164
G0 F6000 X162.148 Y55.799
G1 F1080 X175.749 Y69.4 E156.45729
G0 F6000 X175.749 Y69.966
G1 F1080 X161.583 Y55.799 E157.39018
G0 F6000 X161.017 Y55.799
G1 F1080 X175.749 Y70.531 E158.36031
G0 F6000 X175.749 Y71.097
G1 F1080 X160.451 Y55.799 E159.36771
G0 F6000 X159.886 Y55.799
G1 F1080 X175.749 Y71.663 E160.41234
G0 F6000 X175.749 Y72.228
G1 F1080 X159.32 Y55.799 E161.49422
G0 F6000 X158.754 Y55.799
G1 F1080 X175.749 Y72.794 E162.61337
G0 F6000 X175.749 Y73.36
G1 F1080 X158.188 Y55.799 E163.76979
G0 F6000 X157.623 Y55.799
G1 F1080 X175.749 Y73.925 E164.96342
G0 F6000 X175.749 Y74.491
G1 F1080 X157.057 Y55.799 E166.19432
G0 F6000 X156.491 Y55.799
G1 F1080 X175.749 Y75.057 E167.46249
G0 F6000 X175.749 Y75.622
G1 F1080 X155.926 Y55.799 E168.76787
G0 F6000 X155.36 Y55.799
G1 F1080 X175.749 Y76.188 E170.11052
G0 F6000 X175.749 Y76.754
G1 F1080 X154.794 Y55.799 E171.49044
G0 F6000 X154.229 Y55.799
G1 F1080 X175.749 Y77.32 E172.90761
G0 F6000 X175.749 Y77.885
G1 F1080 X153.663 Y55.799 E174.36201
G0 F6000 X153.097 Y55.799
G1 F1080 X175.749 Y78.451 E175.85368
G0 F6000 X175.749 Y79.017
G1 F1080 X152.532 Y55.799 E177.38259
G0 F6000 X151.966 Y55.799
G1 F1080 X175.749 Y79.582 E178.94874
G0 F6000 X175.749 Y80.148
G1 F1080 X151.4 Y55.799 E180.55217
G0 F6000 X150.835 Y55.799
G1 F1080 X175.749 Y80.714 E182.19283
G0 F6000 X175.749 Y81.279
G1 F1080 X150.269 Y55.799 E183.87073
G0 F6000 X149.703 Y55.799
G1 F1080 X175.749 Y81.845 E185.5859
G0 F6000 X175.749 Y82.411
G1 F1080 X149.138 Y55.799 E187.33832
G0 F6000 X148.572 Y55.799
G1 F1080 X175.749 Y82.976 E189.12797
G0 F6000 X175.749 Y83.542
G1 F1080 X148.006 Y55.799 E190.95489
G0 F6000 X147.44 Y55.799
G1 F1080 X175.749 Y84.108 E192.81909
G0 F6000 X175.749 Y84.673
G1 F1080 X146.875 Y55.799 E194.72049
G0 F6000 X146.309 Y55.799
G1 F1080 X175.749 Y85.239 E196.65917
G0 F6000 X175.749 Y85.805
G1 F1080 X145.743 Y55.799 E198.63511
G0 F6000 X145.178 Y55.799
G1 F1080 X175.749 Y86.37 E200.64826
G0 F6000 X175.749 Y86.936
G1 F1080 X144.612 Y55.799 E202.69869
G0 F6000 X144.046 Y55.799
G1 F1080 X175.749 Y87.502 E204.78639
G0 F6000 X175.749 Y88.068
G1 F1080 X143.481 Y55.799 E206.91132
G0 F6000 X142.915 Y55.799
G1 F1080 X175.749 Y88.633 E209.0735
G0 F6000 X175.749 Y89.199
G1 F1080 X142.349 Y55.799 E211.27294
G0 F6000 X141.784 Y55.799
G1 F1080 X175.749 Y89.765 E213.50963
G0 F6000 X175.749 Y90.33
G1 F1080 X141.218 Y55.799 E215.78355
G0 F6000 X140.652 Y55.799
G1 F1080 X175.749 Y90.896 E218.09475
G0 F6000 X175.749 Y91.462
G1 F1080 X140.087 Y55.799 E220.44319
G0 F6000 X139.521 Y55.799
G1 F1080 X175.749 Y92.027 E222.82886
G0 F6000 X175.749 Y92.593
G1 F1080 X138.955 Y55.799 E225.25181
G0 F6000 X138.389 Y55.799
G1 F1080 X175.749 Y93.159 E227.71203
G0 F6000 X175.749 Y93.724
G1 F1080 X137.824 Y55.799 E230.20946
G0 F6000 X137.258 Y55.799
G1 F1080 X175.749 Y94.29 E232.74416
G0 F6000 X175.749 Y94.856
G1 F1080 X136.692 Y55.799 E235.31613
G0 F6000 X136.127 Y55.799
G1 F1080 X175.749 Y95.421 E237.9253
G0 F6000 X175.749 Y95.987
G1 F1080 X135.561 Y55.799 E240.57175
G0 F6000 X134.995 Y55.799
G1 F1080 X175.749 Y96.553 E243.25547
G0 F6000 X175.749 Y97.118
G1 F1080 X134.43 Y55.799 E245.9764
G0 F6000 X133.864 Y55.799
G1 F1080 X175.749 Y97.684 E248.7346
G0 F6000 X175.749 Y98.25
G1 F1080 X133.298 Y55.799 E251.53007
G0 F6000 X132.733 Y55.799
G1 F1080 X175.749 Y98.816 E254.36278
G0 F6000 X175.749 Y99.381
G1 F1080 X132.167 Y55.799 E257.23273
G0 F6000 X131.601 Y55.799
G1 F1080 X175.749 Y99.947 E260.13995
G0 F6000 X175.749 Y100.513
G1 F1080 X131.036 Y55.799 E263.08441
G0 F6000 X130.47 Y55.799
G1 F1080 X175.749 Y101.078 E266.06611
G0 F6000 X175.749 Y101.644
G1 F1080 X129.904 Y55.799 E269.08508
G0 F6000 X129.339 Y55.799
G1 F1080 X175.749 Y102.21 E272.14129
G0 F6000 X175.749 Y102.775
G1 F1080 X128.773 Y55.799 E275.23474
G0 F6000 X128.207 Y55.799
G1 F1080 X175.749 Y103.341 E278.36546
G0 F6000 X175.749 Y103.907
G1 F1080 X127.641 Y55.799 E281.53346
G0 F6000 X127.076 Y55.799
G1 F1080 X175.749 Y104.472 E284.73866
G0 F6000 X175.749 Y105.038
G1 F1080 X126.51 Y55.799 E287.98113
G0 F6000 X125.944 Y55.799
G1 F1080 X175.749 Y105.604 E291.26087
G0 F6000 X175.749 Y106.169
G1 F1080 X125.379 Y55.799 E294.57782
G0 F6000 X124.813 Y55.799
G1 F1080 X175.749 Y106.735 E297.93205
G0 F6000 X175.749 Y107.301
G1 F1080 X124.247 Y55.799 E301.32354
G0 F6000 X123.682 Y55.799
G1 F1080 X175.749 Y107.867 E304.75227
G0 F6000 X175.749 Y108.432
G1 F1080 X123.116 Y55.799 E308.21825
G0 F6000 X122.55 Y55.799
G1 F1080 X175.749 Y108.998 E311.72149
G0 F6000 X175.749 Y109.564
G1 F1080 X121.985 Y55.799 E315.26198
G0 F6000 X121.419 Y55.799
G1 F1080 X175.749 Y110.129 E318.8397
G0 F6000 X175.749 Y110.695
G1 F1080 X120.853 Y55.799 E322.45469
G0 F6000 X120.288 Y55.799
G1 F1080 X175.749 Y111.261 E326.10693
G0 F6000 X175.749 Y111.826
G1 F1080 X119.722 Y55.799 E329.7964
G0 F6000 X119.156 Y55.799
G1 F1080 X175.749 Y112.392 E333.52315
G0 F6000 X175.749 Y112.958
G1 F1080 X118.59 Y55.799 E337.28717
G0 F6000 X118.025 Y55.799
G1 F1080 X175.749 Y113.523 E341.08839
G0 F6000 X175.749 Y114.089
G1 F1080 X117.459 Y55.799 E344.92689
G0 F6000 X116.893 Y55.799
G1 F1080 X175.749 Y114.655 E348.80265
G0 F6000 X175.749 Y115.22
G1 F1080 X116.328 Y55.799 E352.71563
G0 F6000 X115.762 Y55.799
G1 F1080 X175.749 Y115.786 E356.66587
G0 F6000 X175.749 Y116.352
G1 F1080 X115.196 Y55.799 E360.65339
G0 F6000 X114.631 Y55.799
G1 F1080 X175.749 Y116.917 E364.67812
G0 F6000 X175.749 Y117.483
